X: 1688
T: The Mary Jane Waltz
B: australian traditional tunes wiki
M:3/4
L:1/8
R: Waltz
Q: 1/4=100
K:C
V:1 
one after the other, The Mary Jane Waltz & Midnight Waltz were both in the Treacy 
"C"E6|E2D2C2|"Dm"F6|F2E2F2|"G"G6|G2A2B2|"Dm"d2c2A2|"C"G2G,2C2|
E6|E2D2C2|"Dm"F6|F2E2F2|"G"G6|B2A2B2|d2"C"c2c2|c6||
|:"G"d3edc|B4d2|d2D2G2|B6|"D7"A3BcA|F4d2|e2d2d2|1"G"B6:|2"G"G4||
% abcbook-tune_id 6342d53a13639c7a0f44190f


% abcbook-boost 0
% abcbook-tablature 
% abcbook-transpose 
% abcbook-lastupdated 1665324378032
% abcbook-soundfonts 
% abcbook-repeats 1
% NFF Book 2009

